Papirus-nordic/22x22/places/folder-nordic-private.svg

<svg xmlns="http://www.w3.org/2000/svg" width="22" height="22" version="1"><rect width="20" height="12" x="1" y="8.5" rx="1" ry="1" opacity=".2"/><path d="M1 16c0 .554.446 1 1 1h18c.554 0 1-.446 1-1V5c0-.554-.446-1-1-1H10V3c0-.554-.446-1-1-1H2c-.554 0-1 .446-1 1" fill="#6c9b9a"/><rect width="20" height="12" x="1" y="7.5" rx="1" ry="1" opacity=".2"/><rect width="16" height="8" x="3" y="6" rx="1" ry="1" fill="#e4e4e4"/><rect width="20" height="12" x="1" y="8" rx="1" ry="1" fill="#82abaa"/><path d="M2 2c-.554 0-1 .446-1 1v.5c0-.554.446-1 1-1h7c.554 0 1 .446 1 1V3c0-.554-.446-1-1-1zm8 2v.5h10c.554 0 1 .446 1 1V5c0-.554-.446-1-1-1z" opacity=".1" fill="#fff"/><path d="M9 11a3 3 0 1 0 0 6c1.27 0 2.401-.803 2.824-2H14v1h2v-1h1v-2h-5.176A2.997 2.997 0 0 0 9 11zm0 2a1 1 0 1 1 0 2 1 1 0 0 1 0-2z" fill="#4e6766"/></svg>

<svg xmlns="http://www.w3.org/2000/svg" width="22" height="22" version="1">
 <rect style="opacity:0.2" width="20" height="12" x="1" y="8.5" rx="1" ry="1"/>
 <path style="fill:#6c9b9a" d="M 1,16 C 1,16.554 1.446,17 2,17 H 20 C 20.554,17 21,16.554 21,16 V 5 C 21,4.446 20.554,4 20,4 H 10 V 3 C 10,2.446 9.554,2 9,2 H 2 C 1.446,2 1,2.446 1,3"/>
 <rect style="opacity:0.2" width="20" height="12" x="1" y="7.5" rx="1" ry="1"/>
 <rect style="fill:#e4e4e4" width="16" height="8" x="3" y="6" rx="1" ry="1"/>
 <rect style="fill:#82abaa" width="20" height="12" x="1" y="8" rx="1" ry="1"/>
 <path style="opacity:0.1;fill:#ffffff" d="M 2,2 C 1.446,2 1,2.446 1,3 V 3.5 C 1,2.946 1.446,2.5 2,2.5 H 9 C 9.554,2.5 10,2.946 10,3.5 V 3 C 10,2.446 9.554,2 9,2 Z M 10,4 V 4.5 H 20 C 20.554,4.5 21,4.946 21,5.5 V 5 C 21,4.446 20.554,4 20,4 Z"/>
 <path style="fill:#4e6766" d="M 9,11 C 7.3431,11 6,12.343 6,14 6,15.657 7.3431,17 9,17 10.27,17 11.401,16.197 11.824,15 H 14 V 16 H 16 V 15 H 17 V 13 H 11.824 C 11.401,11.803 10.27,11 9,11 Z M 9,13 C 9.552,13 10,13.448 10,14 10,14.552 9.552,15 9,15 8.4477,15 8,14.552 8,14 8,13.448 8.4477,13 9,13 Z"/>
</svg>
